X: 1
T: Hoe Ana
O: Tahiti
M: 3/4
L: 1/8
K: G
|: "G"D4 E2 | G4 A2 | B4 e2 | d2 B2 G>G \
| "D"[d2B2] [d2B2] [d2B2] | [c2A2] [cA][dB] [cA][BG] | "G"[B6G6] | z6 :|
| "A"A6 | A4 E2 | A4 A2 | A6 \
| "A"A4 AA | A2 FE D2 | "D"A6- | A2 z4 |
| "G"D4 E2 | G4 A2 | B2 B2 e2 | d2 B2 G>G \
| "D"[d4B4] [d2B2] | [c4A4] [c2A2] | "G"[B6G6] | z6 |
|: "G"[e2-G2] [e2-G2] [e2G2] | [e2G2-] [e2G2] [B2E2] \
| "D"[d2-F2] [d2-F2] [d2A2] | [A2F2-] [A2F2] [F2D2] \
| [d2D2] [d2D2] [d2D2] | [c2D2] [B2E2] [A2F2] \
|1 "G"[B2-G2] [B2G2] [e2E2] | [d2-D2] [d2-E2] [d2G2] :|2 "G"[G6G6] | z6 ||
|: "G"[BG][BG][BG][BG] [BG][BG][BG][BG] | "C"[c2G2] [cG][cG] [c2G2] z2 \
| "D"[AF][AF][AF][AF] [AF][AF][AF][AF] | "G"[B2G2][B2G2][B2G2] z2 \
| "G"[B2G2] [B2G2] [B2G2] [G2E2] | "C"[c2G2] [c2G2] [c2G2] z2 \
| "D"[A2F2] [AF2]c [B2E2] [A2F2] | "G"G2 z2 z4 :|
